imgs/polyqwerty.svg

<svg width="205" height="46" viewBox="0 0 205 46" fill="none" xmlns="http://www.w3.org/2000/svg">
<path d="M43.4582 16.1463C43.2254 16.0604 42.9926 15.9675 42.7621 15.8746C37.0792 13.547 32.5372 9.0151 30.2044 3.34495C30.1136 3.12427 30.0252 2.90128 29.9414 2.67596H29.939C29.1615 1.13821 26.3771 0 23.0642 0C19.7514 0 16.9693 1.13821 16.1917 2.67596H16.1871C16.1033 2.90128 16.0148 3.12427 15.924 3.34495C17.6282 7.93496 20.054 12.1742 23.0665 15.9257C23.2621 16.1696 23.4623 16.4135 23.6625 16.6527C23.8628 16.892 24.0676 17.1312 24.2725 17.3682L24.2748 17.3705C24.3959 17.5075 24.5169 17.6446 24.638 17.7816C25.0035 18.1905 25.376 18.5923 25.7555 18.9872C26.6983 19.9675 27.6831 20.9036 28.7075 21.7956C29.1801 22.2067 29.6643 22.6086 30.1532 23.0012C28.5375 24.2927 27.0103 25.6934 25.5879 27.1893C25.064 27.626 24.4541 28.0116 24.2725 27.8792L24.5938 28.2671L24.8801 28.6225C27.6366 32.0534 29.8878 35.8235 31.592 39.8467C34.1272 35.4959 38.0524 32.0534 42.7621 30.1254C42.9926 30.0302 43.223 29.9396 43.4582 29.8537C44.9924 29.0685 46.1285 26.2973 46.1285 23.0012C46.1285 19.7027 44.9947 16.9338 43.4582 16.1463Z" fill="#FD00C5"/>
<path d="M22.4683 29.3473C22.268 29.108 22.0632 28.8688 21.8583 28.6318L21.856 28.6295C21.7349 28.4925 21.6139 28.3554 21.4928 28.2184C21.1273 27.8095 20.7548 27.4077 20.3753 27.0128C19.4325 26.0325 18.4477 25.0964 17.4233 24.2044C16.9507 23.7933 16.4665 23.3914 15.9776 22.9989C17.5746 21.7213 19.0856 20.3392 20.4941 18.8618C21.0202 18.4088 21.6534 18.0047 21.842 18.1417L21.537 17.7306L21.2507 17.3752C18.4942 13.9443 16.243 10.1742 14.5388 6.151C12.0012 10.5041 8.07377 13.9466 3.36407 15.8746C3.13359 15.9698 2.90311 16.0604 2.66798 16.1464C1.13377 16.9338 0 19.7027 0 23.0012C0 26.2973 1.13377 29.0685 2.6703 29.8537C2.90311 29.9396 3.13592 30.0325 3.3664 30.1255C9.04923 32.453 13.5913 36.9849 15.924 42.6551C16.0148 42.8757 16.1033 43.0987 16.1871 43.3241H16.1894C16.9693 44.8618 19.7514 46 23.0643 46C26.3771 46 29.1592 44.8618 29.9391 43.3241H29.9437C30.0275 43.0987 30.116 42.8757 30.2068 42.6551C28.5026 38.0651 26.0768 33.8258 23.0643 30.0743C22.8664 29.8304 22.6685 29.5889 22.4683 29.3473Z" fill="#FD00C5"/>
<path d="M64.786 12.769H60.6932H57.0989V32H60.6932V25.441H64.7598C68.8001 25.441 71.1876 22.8174 71.1876 19.0919C71.1876 15.2089 68.7739 12.769 64.786 12.769ZM64.1039 22.3189H60.6932V15.9436H64.1301C66.4389 15.9436 67.4096 17.439 67.4096 19.0132C67.4096 20.771 66.4389 22.3189 64.1039 22.3189ZM72.0071 25.4672C72.0071 29.5076 74.7356 32.3148 78.8285 32.3148C82.9213 32.3148 85.6236 29.5076 85.6236 25.4672C85.6236 21.4531 82.9213 18.6196 78.8285 18.6196C74.7356 18.6196 72.0071 21.4531 72.0071 25.4672ZM75.4702 25.4672C75.4702 23.2372 76.782 21.6892 78.8285 21.6892C80.8486 21.6892 82.1867 23.2372 82.1867 25.4672C82.1867 27.6973 80.8486 29.2452 78.8285 29.2452C76.782 29.2452 75.4702 27.6973 75.4702 25.4672ZM88.01 32H91.447V12.4017H88.01V32ZM103.68 18.9869L100.217 28.3794L96.6747 18.9869H93.0541L98.6162 32.7608L98.1964 33.8628C97.5667 35.6468 95.8876 35.5681 94.4709 34.7023L93.5526 37.7982C96.045 38.7164 99.4032 39.2149 101.004 35.0696L107.248 18.9869H103.68ZM134.272 22.3714C134.272 16.5995 130.547 12.4279 124.906 12.4279C119.318 12.4279 115.566 16.5995 115.566 22.3714C115.566 28.1695 119.292 32.3148 124.906 32.3148C126.533 32.3148 128.028 31.9475 129.288 31.3179L129.97 32.0787H133.669L131.544 29.665C133.275 27.8809 134.272 25.336 134.272 22.3714ZM124.932 28.8254C121.469 28.8254 119.344 26.333 119.344 22.3714C119.344 18.3835 121.495 15.8911 124.932 15.8911C128.343 15.8911 130.494 18.3835 130.494 22.3714C130.494 24.2341 129.996 25.7821 129.13 26.9102L128.081 25.7034H124.329L126.821 28.5368C126.244 28.7205 125.614 28.8254 124.932 28.8254ZM152.589 18.9869L150.097 27.1726L147.657 18.9869H144.141L141.57 27.0414L139.209 18.9869H135.51L139.838 32H143.197L145.873 24.0767L148.496 32H151.671L156.236 18.9869H152.589ZM169.904 25.4935C169.904 21.3219 167.332 18.5934 163.449 18.5934C159.488 18.5934 156.864 21.4006 156.864 25.4935C156.864 29.6125 159.54 32.3411 163.397 32.3411C166.126 32.3411 168.434 30.9768 169.379 28.6943L166.545 27.5661C165.968 28.6943 164.971 29.4289 163.397 29.4289C161.823 29.4289 160.301 28.6418 160.091 26.7003H169.904V25.4935ZM163.397 21.4269C165.076 21.4269 166.283 22.3714 166.414 24.3391H160.144C160.459 22.4501 161.613 21.4269 163.397 21.4269ZM175.635 20.5086L175.452 19.0132H172.277V32H175.74V25.8345C175.74 22.8961 177.577 21.4006 180.673 22.1353V18.9869C178.731 18.5409 176.396 18.9345 175.635 20.5086ZM200.24 18.9869L196.856 28.773L193.288 18.9869H192.291H188.119V14.9466H184.735V18.9869H182.242V21.8204H184.735V32H188.119V21.8204H190.638L195.151 33.338L194.967 33.7578C194.18 35.8305 192.055 35.4632 191.058 34.7023L190.166 37.5883C192.265 38.6377 196.41 39.0575 198.115 34.5449L203.913 18.9869H200.24Z" fill="#222222"/>
</svg>

<?xml version="1.0" encoding="utf-8"?>
<!-- Generator: Adobe Illustrator 27.4.0, SVG Export Plug-In . SVG Version: 6.00 Build 0)  -->
<svg version="1.1" id="Layer_1" xmlns="http://www.w3.org/2000/svg" xmlns:xlink="http://www.w3.org/1999/xlink" x="0px" y="0px"
	 viewBox="0 0 205 46" style="enable-background:new 0 0 205 46;" xml:space="preserve">
<style type="text/css">
	.st0{fill:#FE30B8;}
	.st1{fill:#FD00C5;}
	.st2{fill:#222222;}
</style>
<path class="st0" d="M43.5,16.1c-0.2-0.1-0.5-0.2-0.7-0.3C37.1,13.5,32.5,9,30.2,3.3c-0.1-0.2-0.2-0.4-0.3-0.7h0
	C29.2,1.1,26.4,0,23.1,0c-3.3,0-6.1,1.1-6.9,2.7h0c-0.1,0.2-0.2,0.4-0.3,0.7c1.7,4.6,4.1,8.8,7.1,12.6c0.2,0.2,0.4,0.5,0.6,0.7
	c0.2,0.2,0.4,0.5,0.6,0.7l0,0c0.1,0.1,0.2,0.3,0.4,0.4c0.4,0.4,0.7,0.8,1.1,1.2c0.9,1,1.9,1.9,3,2.8c0.5,0.4,1,0.8,1.4,1.2
	c-1.6,1.3-3.1,2.7-4.6,4.2c-0.5,0.4-1.1,0.8-1.3,0.7l0.3,0.4l0.3,0.4c2.8,3.4,5,7.2,6.7,11.2c2.5-4.4,6.5-7.8,11.2-9.7
	c0.2-0.1,0.5-0.2,0.7-0.3c1.5-0.8,2.7-3.6,2.7-6.9C46.1,19.7,45,16.9,43.5,16.1z"/>
<path class="st1" d="M22.5,29.3c-0.2-0.2-0.4-0.5-0.6-0.7l0,0c-0.1-0.1-0.2-0.3-0.4-0.4c-0.4-0.4-0.7-0.8-1.1-1.2
	c-0.9-1-1.9-1.9-3-2.8c-0.5-0.4-1-0.8-1.4-1.2c1.6-1.3,3.1-2.7,4.5-4.1c0.5-0.5,1.2-0.9,1.3-0.7l-0.3-0.4l-0.3-0.4
	c-2.8-3.4-5-7.2-6.7-11.2c-2.5,4.4-6.5,7.8-11.2,9.7c-0.2,0.1-0.5,0.2-0.7,0.3C1.1,16.9,0,19.7,0,23c0,3.3,1.1,6.1,2.7,6.9
	c0.2,0.1,0.5,0.2,0.7,0.3C9,32.5,13.6,37,15.9,42.7c0.1,0.2,0.2,0.4,0.3,0.7h0c0.8,1.5,3.6,2.7,6.9,2.7c3.3,0,6.1-1.1,6.9-2.7h0
	c0.1-0.2,0.2-0.4,0.3-0.7c-1.7-4.6-4.1-8.8-7.1-12.6C22.9,29.8,22.7,29.6,22.5,29.3z"/>
<path class="st2" d="M64.8,12.8h-4.1h-3.6V32h3.6v-6.6h4.1c4,0,6.4-2.6,6.4-6.3C71.2,15.2,68.8,12.8,64.8,12.8z M64.1,22.3h-3.4
	v-6.4h3.4c2.3,0,3.3,1.5,3.3,3.1C67.4,20.8,66.4,22.3,64.1,22.3z M72,25.5c0,4,2.7,6.8,6.8,6.8c4.1,0,6.8-2.8,6.8-6.8
	c0-4-2.7-6.8-6.8-6.8C74.7,18.6,72,21.5,72,25.5z M75.5,25.5c0-2.2,1.3-3.8,3.4-3.8c2,0,3.4,1.5,3.4,3.8c0,2.2-1.3,3.8-3.4,3.8
	C76.8,29.2,75.5,27.7,75.5,25.5z M88,32h3.4V12.4H88V32z M103.7,19l-3.5,9.4L96.7,19h-3.6l5.6,13.8l-0.4,1.1
	c-0.6,1.8-2.3,1.7-3.7,0.8l-0.9,3.1c2.5,0.9,5.9,1.4,7.5-2.7l6.2-16.1H103.7z M134.3,22.4c0-5.8-3.7-9.9-9.4-9.9
	c-5.6,0-9.3,4.2-9.3,9.9c0,5.8,3.7,9.9,9.3,9.9c1.6,0,3.1-0.4,4.4-1l0.7,0.8h3.7l-2.1-2.4C133.3,27.9,134.3,25.3,134.3,22.4z
	 M124.9,28.8c-3.5,0-5.6-2.5-5.6-6.5c0-4,2.2-6.5,5.6-6.5c3.4,0,5.6,2.5,5.6,6.5c0,1.9-0.5,3.4-1.4,4.5l-1-1.2h-3.8l2.5,2.8
	C126.2,28.7,125.6,28.8,124.9,28.8z M152.6,19l-2.5,8.2l-2.4-8.2h-3.5l-2.6,8.1l-2.4-8.1h-3.7l4.3,13h3.4l2.7-7.9l2.6,7.9h3.2
	l4.6-13H152.6z M169.9,25.5c0-4.2-2.6-6.9-6.5-6.9c-4,0-6.6,2.8-6.6,6.9c0,4.1,2.7,6.8,6.5,6.8c2.7,0,5-1.4,6-3.6l-2.8-1.1
	c-0.6,1.1-1.6,1.9-3.1,1.9c-1.6,0-3.1-0.8-3.3-2.7h9.8V25.5z M163.4,21.4c1.7,0,2.9,0.9,3,2.9h-6.3
	C160.5,22.5,161.6,21.4,163.4,21.4z M175.6,20.5l-0.2-1.5h-3.2v13h3.5v-6.2c0-2.9,1.8-4.4,4.9-3.7V19
	C178.7,18.5,176.4,18.9,175.6,20.5z M200.2,19l-3.4,9.8l-3.6-9.8h-1h-4.2v-4h-3.4v4h-2.5v2.8h2.5V32h3.4V21.8h2.5l4.5,11.5l-0.2,0.4
	c-0.8,2.1-2.9,1.7-3.9,0.9l-0.9,2.9c2.1,1,6.2,1.5,7.9-3l5.8-15.6H200.2z"/>
</svg>
